_inc/logos/naomi-w.svg

<svg stroke-width=".501" stroke-linejoin="bevel" fill-rule="evenodd" overflow="visible" width="556.8" height="115.2" viewBox="0 0 417.6 86.4" xmlns="http://www.w3.org/2000/svg">
    <g stroke="none" font-size="16" style="font-size:16px;font-family:'Times New Roman';fill:none;stroke:#000">
        <path d="M72.677 6.953v76.061H60.033l.208-48.91L1.798 82.392l.206-76.267h10.985v49.324L72.677 6.953M80.758 5.711l9.74 16.579h-8.912v11.606h14.715l26.736 48.496 42.692-76.681H150.6l-8.704 16.579h-37.925L94.85 5.711H80.758m28.393 28.393h27.356l-13.678 25.075-13.678-25.075M273.912 5.711h-12.436v76.473l42.28-49.117 42.691 50.153V5.711h-13.264l-.206 41.657-29.43-35.44-29.635 35.232V5.711M370.488 5.711l.208 78.34h12.642l-.208-78.34h-12.642" style="fill:#fff;stroke:none" transform="matrix(1 0 0 -1 0 86.4)"/>
        <path d="M165.315 43.222c0 23.004 18.652 41.657 41.657 41.657 23.004 0 41.657-18.653 41.657-41.657 0-23.005-18.653-41.657-41.657-41.657-23.005 0-41.657 18.652-41.657 41.657m41.657-29.221c16.165 0 29.221 13.056 29.221 29.221 0 15.957-13.056 29.015-29.221 29.015-15.958 0-29.016-13.058-29.016-29.015 0-16.165 13.058-29.221 29.016-29.221" style="fill:red;stroke:none" transform="matrix(1 0 0 -1 0 86.4)"/>
    </g>
</svg>

<?xml version="1.0" encoding="UTF-8" standalone="no"?>
<!--Generator: Xara Xtreme (www.xara.com), SVG filter version: 1.0.0.13-->

<svg
   xmlns:dc="http://purl.org/dc/elements/1.1/"
   xmlns:cc="http://creativecommons.org/ns#"
   xmlns:rdf="http://www.w3.org/1999/02/22-rdf-syntax-ns#"
   xmlns:svg="http://www.w3.org/2000/svg"
   xmlns="http://www.w3.org/2000/svg"
   xmlns:sodipodi="http://sodipodi.sourceforge.net/DTD/sodipodi-0.dtd"
   xmlns:inkscape="http://www.inkscape.org/namespaces/inkscape"
   stroke-width="0.501"
   stroke-linejoin="bevel"
   fill-rule="evenodd"
   version="1.1"
   overflow="visible"
   width="417.6pt"
   height="86.4pt"
   viewBox="0 0 417.6 86.4"
   id="svg98"
   sodipodi:docname="naomi2.svg"
   inkscape:version="0.92.4 (5da689c313, 2019-01-14)">
  <metadata
     id="metadata102">
    <rdf:RDF>
      <cc:Work
         rdf:about="">
        <dc:format>image/svg+xml</dc:format>
        <dc:type
           rdf:resource="http://purl.org/dc/dcmitype/StillImage" />
      </cc:Work>
    </rdf:RDF>
  </metadata>
  <sodipodi:namedview
     pagecolor="#ffffff"
     bordercolor="#666666"
     borderopacity="1"
     objecttolerance="10"
     gridtolerance="10"
     guidetolerance="10"
     inkscape:pageopacity="0"
     inkscape:pageshadow="2"
     inkscape:window-width="640"
     inkscape:window-height="480"
     id="namedview100"
     showgrid="false"
     inkscape:zoom="1.813485"
     inkscape:cx="299.44222"
     inkscape:cy="48.915612"
     inkscape:current-layer="Layer 1" />
  <defs
     id="defs79">
    <marker
       id="DefaultArrow2"
       markerUnits="strokeWidth"
       viewBox="0 0 1 1"
       markerWidth="1"
       markerHeight="1"
       overflow="visible"
       orient="auto">
      <!-- REF_ARROW_STRAIGHT (-2) -->
      <g
         transform="scale(0.0092592592)"
         id="g4">
        <!-- 1/108 -->
        <path
           d="M -9 54 L -9 -54 L 117 0 z"
           id="path2" />
      </g>
    </marker>
    <marker
       id="DefaultArrow3"
       markerUnits="strokeWidth"
       viewBox="0 0 1 1"
       markerWidth="1"
       markerHeight="1"
       overflow="visible"
       orient="auto">
      <!-- REF_ARROW_ANGLED -->
      <g
         transform="scale(0.0092592592)"
         id="g9">
        <path
           d="M -27 54 L -9 0 L -27 -54 L 135 0 z"
           id="path7" />
      </g>
    </marker>
    <marker
       id="DefaultArrow4"
       markerUnits="strokeWidth"
       viewBox="0 0 1 1"
       markerWidth="1"
       markerHeight="1"
       overflow="visible"
       orient="auto">
      <!-- REF_ARROW_ROUNDED -->
      <g
         transform="scale(0.0092592592)"
         id="g14">
        <path
           d="M -9,0 L -9,-45 C -9,-51.708 2.808,-56.580 9,-54 L 117,-9 C 120.916,-7.369 126.000,-4.242 126,0 C 126,4.242 120.916,7.369 117,9 L 9,54 C 2.808,56.580 -9,51.708 -9,45 z"
           id="path12" />
      </g>
    </marker>
    <marker
       id="DefaultArrow5"
       markerUnits="strokeWidth"
       viewBox="0 0 1 1"
       markerWidth="1"
       markerHeight="1"
       overflow="visible"
       orient="auto">
      <!-- REF_ARROW_SPOT -->
      <g
         transform="scale(0.0092592592)"
         id="g19">
        <path
           d="M -54, 0 C -54,29.807 -29.807,54 0,54 C 29.807,54 54,29.807 54,0 C 54,-29.807 29.807,-54 0,-54 C -29.807,-54 -54,-29.807 -54,0 z"
           id="path17" />
      </g>
    </marker>
    <marker
       id="DefaultArrow6"
       markerUnits="strokeWidth"
       viewBox="0 0 1 1"
       markerWidth="1"
       markerHeight="1"
       overflow="visible"
       orient="auto">
      <!-- REF_ARROW_DIAMOND -->
      <g
         transform="scale(0.0092592592)"
         id="g24">
        <path
           d="M -63,0 L 0,63 L 63,0 L 0,-63 z"
           id="path22" />
      </g>
    </marker>
    <marker
       id="DefaultArrow7"
       markerUnits="strokeWidth"
       viewBox="0 0 1 1"
       markerWidth="1"
       markerHeight="1"
       overflow="visible"
       orient="auto">
      <!-- REF_ARROW_FEATHER -->
      <g
         transform="scale(0.0092592592)"
         id="g29">
        <path
           d="M 18,-54 L 108,-54 L 63,0 L 108,54 L 18, 54 L -36,0 z"
           id="path27" />
      </g>
    </marker>
    <marker
       id="DefaultArrow8"
       markerUnits="strokeWidth"
       viewBox="0 0 1 1"
       markerWidth="1"
       markerHeight="1"
       overflow="visible"
       orient="auto">
      <!-- REF_ARROW_FEATHER2 -->
      <g
         transform="scale(0.0092592592)"
         id="g34">
        <path
           d="M -36,0 L 18,-54 L 54,-54 L 18,-18 L 27,-18 L 63,-54 L 99,-54 L 63,-18 L 72,-18 L 108,-54 L 144,-54 L 90,0 L 144,54 L 108,54 L 72,18 L 63,18 L 99,54 L 63,54 L 27,18 L 18,18 L 54,54 L 18,54 z"
           id="path32" />
      </g>
    </marker>
    <marker
       id="DefaultArrow9"
       markerUnits="strokeWidth"
       viewBox="0 0 1 1"
       markerWidth="1"
       markerHeight="1"
       overflow="visible"
       orient="auto">
      <!-- REF_ARROW_HOLLOWDIAMOND -->
      <g
         transform="scale(0.0092592592)"
         id="g39">
        <path
           d="M 0,45 L -45,0 L 0, -45 L 45, 0 z M 0, 63 L-63, 0 L 0, -63 L 63, 0 z"
           id="path37" />
      </g>
    </marker>
    <filter
       id="StainedFilter">
      <feBlend
         mode="multiply"
         in2="BackgroundImage"
         in="SourceGraphic"
         result="blend"
         id="feBlend42" />
      <feComposite
         in="blend"
         in2="SourceAlpha"
         operator="in"
         result="comp"
         id="feComposite44" />
    </filter>
    <filter
       id="BleachFilter">
      <feBlend
         mode="screen"
         in2="BackgroundImage"
         in="SourceGraphic"
         result="blend"
         id="feBlend47" />
      <feComposite
         in="blend"
         in2="SourceAlpha"
         operator="in"
         result="comp"
         id="feComposite49" />
    </filter>
    <filter
       id="InvertTransparencyBitmapFilter">
      <feComponentTransfer
         id="feComponentTransfer58">
        <feFuncR
           type="gamma"
           amplitude="1.055"
           exponent=".416666666"
           offset="-0.055"
           id="feFuncR52" />
        <feFuncG
           type="gamma"
           amplitude="1.055"
           exponent=".416666666"
           offset="-0.055"
           id="feFuncG54" />
        <feFuncB
           type="gamma"
           amplitude="1.055"
           exponent=".416666666"
           offset="-0.055"
           id="feFuncB56" />
      </feComponentTransfer>
      <feComponentTransfer
         id="feComponentTransfer68">
        <feFuncR
           type="linear"
           slope="-1"
           intercept="1"
           id="feFuncR60" />
        <feFuncG
           type="linear"
           slope="-1"
           intercept="1"
           id="feFuncG62" />
        <feFuncB
           type="linear"
           slope="-1"
           intercept="1"
           id="feFuncB64" />
        <feFuncA
           type="linear"
           slope="1"
           intercept="0"
           id="feFuncA66" />
      </feComponentTransfer>
      <feComponentTransfer
         id="feComponentTransfer76">
        <feFuncR
           type="gamma"
           amplitude="1"
           exponent="2.4"
           offset="0"
           id="feFuncR70" />
        <feFuncG
           type="gamma"
           amplitude="1"
           exponent="2.4"
           offset="0"
           id="feFuncG72" />
        <feFuncB
           type="gamma"
           amplitude="1"
           exponent="2.4"
           offset="0"
           id="feFuncB74" />
      </feComponentTransfer>
    </filter>
  </defs>
  <g
     id="Document"
     font-size="16"
     transform="scale(1,-1)"
     style="font-size:16px;font-family:'Times New Roman';fill:none;stroke:#000000">
    <g
       id="Spread"
       transform="translate(0,-86.4)">
      <g
         id="Layer 1">
        <path
           d="M 72.677,6.953 V 83.014 H 60.033 L 60.241,34.104 1.798,82.392 2.004,6.125 H 12.989 V 55.449 L 72.677,6.953"
           id="path81"
           inkscape:connector-curvature="0"
           style="fill:#ffffff;stroke:none" />
        <path
           d="m 80.758,5.711 9.74,16.579 H 81.586 V 33.896 H 96.301 L 123.037,82.392 165.729,5.711 H 150.6 L 141.896,22.29 H 103.971 L 94.85,5.711 H 80.758 m 28.393,28.393 h 27.356 L 122.829,59.179 109.151,34.104"
           id="path83"
           inkscape:connector-curvature="0"
           style="fill:#ffffff;stroke:none" />
        <path
           d="m 273.912,5.711 h -12.436 v 76.473 l 42.28,-49.117 42.691,50.153 V 5.711 h -13.264 l -0.206,41.657 -29.43,-35.44 -29.635,35.232 V 5.711"
           id="path85"
           inkscape:connector-curvature="0"
           style="fill:#ffffff;stroke:none" />
        <path
           d="m 370.488,5.711 0.208,78.34 h 12.642 L 383.13,5.711 h -12.642"
           id="path87"
           inkscape:connector-curvature="0"
           style="fill:#ffffff;stroke:none" />
        <path
           d="m 394.943,71.201 v 10.983 h -3.524 v 2.073 h 9.743 V 82.184 H 397.43 V 71.201 h -2.487"
           id="path89"
           inkscape:connector-curvature="0"
           style="fill:#ffffff;stroke:none" />
        <path
           d="m 401.782,71.407 v 12.85 h 3.524 l 3.729,-8.084 3.524,8.084 h 2.695 V 71.201 h -2.487 v 8.495 l -3.523,-8.495 -4.975,8.495 v -8.495 l -2.487,0.206"
           id="path91"
           inkscape:connector-curvature="0"
           style="fill:#ffffff;stroke:none" />
        <path
           d="m 165.315,43.222 c 0,23.004 18.652,41.657 41.657,41.657 23.004,0 41.657,-18.653 41.657,-41.657 0,-23.005 -18.653,-41.657 -41.657,-41.657 -23.005,0 -41.657,18.652 -41.657,41.657 m 41.657,-29.221 c 16.165,0 29.221,13.056 29.221,29.221 0,15.957 -13.056,29.015 -29.221,29.015 -15.958,0 -29.016,-13.058 -29.016,-29.015 0,-16.165 13.058,-29.221 29.016,-29.221"
           id="path93"
           inkscape:connector-curvature="0"
           style="fill:#ff0000;stroke:none" />
      </g>
    </g>
  </g>
</svg>
